X: 1
T: Smash The Windows
R: jig
M: 6/8
L: 1/8
K: Dmaj
|:DED F2A|d2f edA|G2B F2A|E2F GFE|DED F2A|d2f edA|Bgf edc|1d3 dAF:|2d3 efg||a2f d2e|f2g agf|g2e =cBc|e2f gfe|a2f d2e|f2g agf|egf edc|d3 efg|a2f d2e|f2g agf|g2e =c2d|e2f gfe|fed gfe|agf bag|egf edc|d3 dAF|


Tune 101	Setting 12661

